to zapalka
setpc 1 setpensize [3 3] bk 60 pu bk 10 pd setpc 4 circle 10 setfc 4 fill setpensize [1 1]
end

to zapalki1 :d
repeat 12 [zapalka rt 90 pu bk :d-2 lt 60 pd]
end

to zapalki2 :d
repeat 12 [zapalka rt 90 pu bk :d+2 lt 60 pd]
end

